X:1
T:Dresden
T:Mozart
T:Dresden
C:Mozart
%%score { ( 1 2 ) | ( 3 4 ) }
L:1/8
Q:1/2=120
M:3/2
K:G
V:1 treble nm="Piano" snm="Pno."
V:2 treble 
V:3 bass 
V:4 bass 
V:1
 D4 | G8 G4 | F8 D4 | c8 c4 | B8 (G2 B2) | d8 B4 | (d4 c4) A4 | G8 B4 | A8 D4 | G8 G4 | F8 D4 | %11
 c8 c4 | B8 (G2 B2) | d8 B4 | ((d4 c4)) A4 | (G4 F4) A4 | G8 |] %17
V:2
 D4 | D8 D4 | D8 D4 | D8 D4 | D8 G4 | (B4 G4) G4 | E8 D4 | D8 G4 | F8 D4 | D8 D4 | D8 D4 | D8 D4 | %12
 D8 G4 | (B4 G4) G4 | D8 E4 | D8 F4 | G8 |] %17
V:3
 B,4 | ((B,4 D4)) B,4 | A,8 A,4 | (F,4 A,4) F,4 | G,8 D4 | D4 D4 B,4 | A,8 C4 | B,8 D4 | D8 B,4 | %9
 (B,4 D4) B,4 | A,8 A,4 | (F,4 A,4) F,4 | G,8 D4 | B,8 D4 | A,8 C4 | (B,4 A,4) C4 | B,8 |] %17
V:4
 G,4 | G,8 G,4 | D,8 D,4 | (D,4 F,4) D,4 | G,8 G,4 | (G,4 B,4) G,4 | A,8 F,4 | (G,4 B,4) G,4 | %8
 D,8 G,4 | G,8 G,4 | D,8 D,4 | (D,4 F,4) D,4 | G,8 G,4 | (G,4 B,4) G,4 | A,8 C,4 | D,8 D,4 | G,8 |] %17

